build/assets/img/social-media-1.svg

<svg width="50" height="50" viewBox="0 0 50 50" fill="none" xmlns="http://www.w3.org/2000/svg">
<path d="M21.0938 10.468V10.3453C21.0938 9.00703 20.5727 7.74922 19.6258 6.80234C18.7664 5.94219 17.6227 5.46875 16.4062 5.46875C15.2344 5.46875 14.1297 5.90859 13.2812 6.71016C12.4328 5.90859 11.3281 5.46875 10.1562 5.46875C8.93984 5.46875 7.79609 5.94219 6.93672 6.80234C5.98984 7.74922 5.46875 9.00703 5.46875 10.3453V10.468C5.46875 11.982 6.11797 13.4273 7.24922 14.4328L13.2812 19.7953L19.3125 14.4336C20.4445 13.4281 21.0938 11.9828 21.0938 10.468ZM13.2812 17.7047L8.2875 13.2656C7.48906 12.5563 7.03125 11.5367 7.03125 10.468V10.3453C7.03125 9.42422 7.38984 8.55859 8.04141 7.90703C8.60625 7.34219 9.35781 7.03125 10.1562 7.03125C10.9547 7.03125 11.7062 7.34219 12.2711 7.90703L13.2812 8.91719L14.2914 7.90703C15.4211 6.77813 17.3914 6.77813 18.5211 7.90703C19.1727 8.55859 19.5312 9.42422 19.5312 10.3453V10.468C19.5312 11.5359 19.0734 12.5563 18.275 13.2656L13.2812 17.7047Z" fill="white"/>
<path d="M46.875 7.03125H25.7812V3.125C25.7812 1.83281 24.7297 0.78125 23.4375 0.78125H3.125C1.83281 0.78125 0.78125 1.83281 0.78125 3.125V20.3125C0.78125 21.6047 1.83281 22.6562 3.125 22.6562H9.79062L11.093 24.2188H4.6875C3.39531 24.2188 2.34375 25.2703 2.34375 26.5625V42.1875C2.34375 43.4797 3.39531 44.5312 4.6875 44.5312H12.9156L16.2687 48.5547C16.6203 48.9766 17.1367 49.2188 17.6859 49.2188C18.7031 49.2188 19.5312 48.3906 19.5312 47.3734V44.5312H28.125C29.4172 44.5312 30.4688 43.4797 30.4688 42.1875V28.9062H32.0312V31.7484C32.0312 32.7656 32.8594 33.5938 33.8766 33.5938C34.4258 33.5938 34.9422 33.3516 35.2938 32.9297L38.6469 28.9062H46.875C48.1672 28.9062 49.2188 27.8547 49.2188 26.5625V9.375C49.2188 8.08281 48.1672 7.03125 46.875 7.03125ZM3.125 21.0938C2.69453 21.0938 2.34375 20.7437 2.34375 20.3125V3.125C2.34375 2.69375 2.69453 2.34375 3.125 2.34375H23.4375C23.868 2.34375 24.2188 2.69375 24.2188 3.125V20.3125C24.2188 20.7437 23.868 21.0938 23.4375 21.0938H14.8438V25.4984C14.8438 25.7398 14.4984 25.8648 14.3438 25.6789L10.5219 21.0938H3.125ZM21.0938 24.2188H16.4062V22.6562H21.0938V24.2188ZM28.9062 42.1875C28.9062 42.6188 28.5555 42.9688 28.125 42.9688H17.9688V47.3734C17.9688 47.6148 17.6234 47.7398 17.4688 47.5539L13.6469 42.9688H4.6875C4.25703 42.9688 3.90625 42.6188 3.90625 42.1875V26.5625C3.90625 26.1313 4.25703 25.7812 4.6875 25.7812H12.3945L13.1437 26.6797C13.4953 27.1016 14.0117 27.3438 14.5609 27.3438C15.4813 27.3438 16.2398 26.6641 16.3773 25.7812H21.0938V26.5625C21.0938 27.8547 22.1453 28.9062 23.4375 28.9062H28.9062V42.1875ZM47.6562 26.5625C47.6562 26.9937 47.3055 27.3438 46.875 27.3438H37.9156L34.0938 31.9289C33.9391 32.1133 33.5938 31.9891 33.5938 31.7484V27.3438H23.4375C23.007 27.3438 22.6562 26.9937 22.6562 26.5625V22.6562H23.4375C24.7297 22.6562 25.7812 21.6047 25.7812 20.3125V8.59375H46.875C47.3055 8.59375 47.6562 8.94375 47.6562 9.375V26.5625Z" fill="white"/>
<path d="M19.5312 33.5938C19.5312 34.057 19.6391 34.493 19.8203 34.8883C19.4836 34.5898 19.1086 34.3352 18.7031 34.1328C19.2125 33.5766 19.5312 32.843 19.5312 32.0312C19.5312 30.3078 18.1297 28.9062 16.4062 28.9062C14.6828 28.9062 13.2812 30.3078 13.2812 32.0312C13.2812 32.843 13.6 33.5766 14.1094 34.1328C13.7039 34.3352 13.3289 34.5898 12.9922 34.8883C13.1734 34.493 13.2812 34.057 13.2812 33.5938C13.2812 31.8703 11.8797 30.4688 10.1562 30.4688C8.43281 30.4688 7.03125 31.8703 7.03125 33.5938C7.03125 34.4266 7.36328 35.1789 7.89609 35.7398C6.45078 36.5391 5.46875 38.0781 5.46875 39.8438V41.4062H7.03125V39.8438C7.03125 38.1203 8.43281 36.7188 10.1562 36.7188C10.6484 36.7188 11.1203 36.8359 11.55 37.0508C11.4266 37.4078 11.3359 37.7813 11.2922 38.1711L10.9422 41.3195L12.4945 41.4922L12.8445 38.3438C13.0469 36.5266 14.5781 35.1562 16.4062 35.1562C18.2344 35.1562 19.7656 36.5266 19.968 38.3438L20.318 41.4922L21.8703 41.3195L21.5203 38.1711C21.4773 37.7813 21.3859 37.4078 21.2625 37.0508C21.6922 36.8359 22.1641 36.7188 22.6562 36.7188C24.3797 36.7188 25.7812 38.1203 25.7812 39.8438V41.4062H27.3438V39.8438C27.3438 38.0781 26.3617 36.5391 24.9164 35.7398C25.4492 35.1789 25.7812 34.4266 25.7812 33.5938C25.7812 31.8703 24.3797 30.4688 22.6562 30.4688C20.9328 30.4688 19.5312 31.8703 19.5312 33.5938ZM8.59375 33.5938C8.59375 32.732 9.29453 32.0312 10.1562 32.0312C11.018 32.0312 11.7188 32.732 11.7188 33.5938C11.7188 34.4555 11.018 35.1562 10.1562 35.1562C9.29453 35.1562 8.59375 34.4555 8.59375 33.5938ZM14.8438 32.0312C14.8438 31.1695 15.5445 30.4688 16.4062 30.4688C17.268 30.4688 17.9688 31.1695 17.9688 32.0312C17.9688 32.893 17.268 33.5938 16.4062 33.5938C15.5445 33.5938 14.8438 32.893 14.8438 32.0312ZM24.2188 33.5938C24.2188 34.4555 23.518 35.1562 22.6562 35.1562C21.7945 35.1562 21.0938 34.4555 21.0938 33.5938C21.0938 32.732 21.7945 32.0312 22.6562 32.0312C23.518 32.0312 24.2188 32.732 24.2188 33.5938Z" fill="white"/>
<path d="M41.4062 14.8438H39.9844L40.1727 13.7156C40.3203 12.8273 40.0719 11.9242 39.4898 11.2375C38.9078 10.55 38.0578 10.1562 37.1578 10.1562C36.0805 10.1562 35.1453 10.8867 34.8836 11.9313C34.6008 13.0641 34.0148 14.0984 33.1891 14.925L32.9586 15.1555C32.6984 14.9625 32.3797 14.8438 32.0312 14.8438H28.9062C28.0445 14.8438 27.3438 15.5445 27.3438 16.4062V24.2188C27.3438 25.0805 28.0445 25.7812 28.9062 25.7812H32.0312C32.7133 25.7812 33.2875 25.3398 33.5008 24.7297C34.8867 25.4172 36.4094 25.7812 37.9727 25.7812H41.4062C43.1297 25.7812 44.5312 24.3797 44.5312 22.6562V17.9688C44.5312 16.2453 43.1297 14.8438 41.4062 14.8438ZM28.9062 24.2188V16.4062H32.0312L32.032 24.2188H28.9062ZM42.9688 22.6562C42.9688 23.518 42.268 24.2188 41.4062 24.2188H37.9727C36.4219 24.2188 34.918 23.7961 33.5938 23.0016V16.7297L34.2937 16.0297C35.3195 15.0039 36.0484 13.7172 36.4 12.3102C36.4867 11.9625 36.7984 11.7188 37.1578 11.7188C37.5977 11.7188 38.0133 11.9109 38.2977 12.2477C38.582 12.5836 38.7039 13.025 38.6313 13.4594L38.1406 16.4062H41.4062C42.268 16.4062 42.9688 17.107 42.9688 17.9688V22.6562Z" fill="white"/>
</svg>

<svg width="50" height="50" fill="none" xmlns="http://www.w3.org/2000/svg"><path d="M21.094 10.468v-.123a4.977 4.977 0 00-1.468-3.543 4.521 4.521 0 00-3.22-1.333c-1.172 0-2.276.44-3.125 1.241a4.522 4.522 0 00-3.125-1.241c-1.216 0-2.36.473-3.22 1.333a4.977 4.977 0 00-1.467 3.543v.123a5.31 5.31 0 001.78 3.965l6.032 5.362 6.031-5.361a5.308 5.308 0 001.782-3.966zm-7.813 7.237l-4.994-4.44a3.744 3.744 0 01-1.256-2.797v-.123c0-.92.359-1.786 1.01-2.438a2.972 2.972 0 012.115-.876c.799 0 1.55.311 2.115.876l1.01 1.01 1.01-1.01c1.13-1.129 3.1-1.129 4.23 0a3.425 3.425 0 011.01 2.438v.123a3.746 3.746 0 01-1.256 2.798l-4.994 4.439z" fill="#fff"/><path d="M46.875 7.031H25.781V3.125A2.347 2.347 0 0023.438.781H3.125A2.347 2.347 0 00.781 3.125v17.188a2.347 2.347 0 002.344 2.343h6.666l1.302 1.563H4.688a2.347 2.347 0 00-2.344 2.343v15.625a2.347 2.347 0 002.344 2.344h8.228l3.353 4.024a1.84 1.84 0 001.417.664 1.848 1.848 0 001.845-1.846v-2.842h8.594a2.347 2.347 0 002.344-2.343V28.905h1.562v2.842c0 1.018.828 1.846 1.846 1.846a1.84 1.84 0 001.417-.664l3.353-4.024h8.228a2.347 2.347 0 002.344-2.343V9.375a2.347 2.347 0 00-2.344-2.344zM3.125 21.094a.782.782 0 01-.781-.782V3.125c0-.431.35-.781.781-.781h20.313c.43 0 .78.35.78.781v17.188c0 .43-.35.78-.78.78h-8.594v4.405c0 .242-.346.367-.5.18l-3.822-4.584H3.125zm17.969 3.125h-4.688v-1.563h4.688v1.563zm7.812 17.968c0 .432-.35.782-.781.782H17.969v4.404c0 .242-.346.367-.5.18l-3.822-4.584h-8.96a.782.782 0 01-.78-.782V26.563c0-.432.35-.782.78-.782h7.708l.749.899a1.84 1.84 0 003.233-.899h4.717v.782a2.347 2.347 0 002.343 2.343h5.47v13.282zm18.75-15.624c0 .43-.35.78-.781.78h-8.96l-3.821 4.586c-.155.184-.5.06-.5-.18v-4.405H23.437a.782.782 0 01-.78-.782v-3.906h.78a2.347 2.347 0 002.344-2.343V8.592h21.094c.43 0 .781.35.781.782v17.188z" fill="#fff"/><path d="M19.531 33.594c0 .463.108.899.29 1.294a5.154 5.154 0 00-1.118-.755 3.1 3.1 0 00.828-2.102 3.128 3.128 0 00-3.125-3.125 3.128 3.128 0 00-3.125 3.125c0 .812.319 1.546.828 2.102-.405.202-.78.457-1.117.755.181-.395.29-.831.29-1.294a3.128 3.128 0 00-3.126-3.125 3.128 3.128 0 00-3.125 3.125c0 .833.332 1.585.865 2.146a4.69 4.69 0 00-2.427 4.104v1.562H7.03v-1.562a3.128 3.128 0 013.125-3.125c.492 0 .964.117 1.394.332-.123.357-.214.73-.258 1.12l-.35 3.148 1.553.173.35-3.148a3.58 3.58 0 013.561-3.188 3.58 3.58 0 013.562 3.188l.35 3.148 1.552-.172-.35-3.149a5.155 5.155 0 00-.258-1.12c.43-.215.902-.332 1.394-.332a3.128 3.128 0 013.125 3.125v1.562h1.563v-1.562a4.69 4.69 0 00-2.428-4.104 3.105 3.105 0 00.865-2.146 3.128 3.128 0 00-3.125-3.125 3.128 3.128 0 00-3.125 3.125zm-10.937 0a1.564 1.564 0 013.125 0 1.563 1.563 0 01-3.125 0zm6.25-1.563a1.563 1.563 0 013.125 0c0 .862-.701 1.563-1.563 1.563a1.564 1.564 0 01-1.562-1.563zm9.375 1.563a1.564 1.564 0 01-3.125 0 1.564 1.564 0 013.125 0zm17.187-18.75h-1.422l.189-1.128a3.051 3.051 0 00-.683-2.478 3.05 3.05 0 00-2.332-1.082 2.34 2.34 0 00-2.274 1.775 6.445 6.445 0 01-1.695 2.994l-.23.23a1.55 1.55 0 00-.928-.311h-3.125c-.861 0-1.562.7-1.562 1.562v7.813c0 .861.7 1.562 1.562 1.562h3.125a1.56 1.56 0 001.47-1.051 10.043 10.043 0 004.472 1.051h3.433a3.128 3.128 0 003.125-3.125V17.97a3.128 3.128 0 00-3.125-3.125zm-12.5 9.375v-7.813h3.125l.001 7.813h-3.126zm14.063-1.563c0 .862-.701 1.563-1.563 1.563h-3.433a8.49 8.49 0 01-4.38-1.217V16.73l.7-.7a8.009 8.009 0 002.107-3.72.78.78 0 01.758-.591 1.491 1.491 0 011.474 1.74l-.491 2.947h3.265c.862 0 1.563.701 1.563 1.563v4.687z" fill="#fff"/></svg>
